Resources/srgb_to_flog2c_33.cube
# sRGB → pseudo F-Log2C LUT
# size=33
# exposure_stops=0.4
# pre_gamma=0.75
# wb_r=2.6, wb_g=1.2, wb_b=0.35
# sat=0.5
LUT_3D_SIZE 33
DOMAIN_MIN 0.0 0.0 0.0
DOMAIN_MAX 1.0 1.0 1.0
0.092864 0.092864 0.092864
0.119221 0.094805 0.094805
0.135716 0.096288 0.096288
0.152907 0.098099 0.098099
0.170217 0.100242 0.100242
0.187160 0.102616 0.102616
0.203480 0.105211 0.105211
0.219061 0.108015 0.108015
0.233865 0.111006 0.111006
0.247902 0.114161 0.114161
0.261204 0.117457 0.117457
0.273812 0.120877 0.120877
0.285776 0.124401 0.124401
0.297141 0.128013 0.128013
0.307954 0.131698 0.131698
0.318257 0.135442 0.135442
0.328090 0.139232 0.139232
0.337488 0.143058 0.143058
0.346485 0.146910 0.146910
0.355110 0.150778 0.150778
0.363391 0.154654 0.154654
0.371351 0.158532 0.158532
0.379013 0.162405 0.162405
0.386398 0.166268 0.166268
0.393523 0.170116 0.170116
0.400405 0.173945 0.173945
0.407059 0.177752 0.177752
0.413500 0.181532 0.181532
0.419740 0.185284 0.185284
0.425791 0.189006 0.189006
0.431663 0.192695 0.192695
0.437367 0.196350 0.196350
0.442911 0.199969 0.199969
0.134034 0.173482 0.134034
0.152630 0.174423 0.135394
0.164929 0.175136 0.136421
0.178243 0.176000 0.137662
0.192116 0.177014 0.139112
0.206108 0.178168 0.140755
0.219933 0.179453 0.142576
0.233419 0.180859 0.144558
0.246466 0.182379 0.146689
0.259026 0.184005 0.148955
0.271080 0.185729 0.151344
0.282631 0.187544 0.153842
0.293691 0.189443 0.156439
0.304282 0.191420 0.159125
0.314426 0.193467 0.161889
0.324148 0.195580 0.164721
0.333475 0.197752 0.167613
0.342429 0.199978 0.170556
0.351034 0.202252 0.173544
0.359312 0.204569 0.176568
0.367284 0.206926 0.179623
0.374969 0.209316 0.182702
0.382384 0.211737 0.185800
0.389546 0.214185 0.188912
0.396470 0.216655 0.192034
0.403170 0.219144 0.195161
0.409659 0.221650 0.198290
0.415949 0.224168 0.201417
0.422051 0.226697 0.204540
0.427976 0.229234 0.207655
0.433732 0.231777 0.210760
0.439328 0.234322 0.213853
0.444774 0.236870 0.216932
0.157372 0.209751 0.157372
0.172556 0.210421 0.158465
0.182855 0.210930 0.159293
0.194213 0.211548 0.160295
0.206259 0.212276 0.161470
0.218608 0.213106 0.162804
0.230988 0.214032 0.164286
0.243218 0.215051 0.165906
0.255181 0.216156 0.167653
0.266805 0.217342 0.169518
0.278054 0.218605 0.171491
0.288908 0.219942 0.173563
0.299366 0.221346 0.175726
0.309432 0.222815 0.177971
0.319119 0.224343 0.180291
0.328440 0.225928 0.182679
0.337413 0.227566 0.185127
0.346055 0.229252 0.187630
0.354383 0.230985 0.190180
0.362415 0.232759 0.192772
0.370166 0.234572 0.195401
0.377652 0.236421 0.198062
0.384889 0.238303 0.200749
0.391890 0.240215 0.203459
0.398668 0.242154 0.206188
0.405235 0.244118 0.208931
0.411603 0.246105 0.211685
0.417783 0.248112 0.214447
0.423784 0.250137 0.217215
0.429615 0.252177 0.219985
0.435286 0.254232 0.222755
0.440804 0.256298 0.225523
0.446176 0.258375 0.228287
0.180304 0.241901 0.180304
0.192711 0.242397 0.181186
0.201304 0.242774 0.181856
0.210935 0.243233 0.182667
0.221314 0.243774 0.183620
0.232115 0.244392 0.184705
0.243094 0.245083 0.185913
0.254075 0.245845 0.187238
0.264936 0.246674 0.188670
0.275592 0.247566 0.190203
0.285992 0.248519 0.191830
0.296103 0.249529 0.193545
0.305908 0.250595 0.195341
0.315401 0.251712 0.197212
0.324581 0.252880 0.199152
0.333456 0.254095 0.201156
0.342032 0.255354 0.203219
0.350321 0.256656 0.205334
0.358334 0.257997 0.207498
0.366084 0.259377 0.209705
0.373582 0.260792 0.211952
0.380840 0.262240 0.214233
0.387870 0.263719 0.216546
0.394684 0.265228 0.218887
0.401292 0.266765 0.221251
0.407704 0.268327 0.223637
0.413930 0.269913 0.226040
0.419980 0.271521 0.228458
0.425862 0.273149 0.230888
0.431584 0.274796 0.233329
0.437153 0.276461 0.235776
0.442577 0.278141 0.238229
0.447863 0.279836 0.240686
0.202295 0.270538 0.202295
0.212495 0.270917 0.203013
0.219680 0.271206 0.203559
0.227841 0.271557 0.204222
0.236759 0.271972 0.205001
0.246164 0.272447 0.205889
0.255847 0.272979 0.206881
0.265644 0.273565 0.207969
0.275436 0.274205 0.209150
0.285137 0.274894 0.210416
0.294684 0.275632 0.211764
0.304037 0.276416 0.213188
0.313167 0.277245 0.214684
0.322060 0.278117 0.216246
0.330706 0.279029 0.217872
0.339104 0.279980 0.219555
0.347254 0.280969 0.221293
0.355161 0.281994 0.223081
0.362830 0.283053 0.224915
0.370270 0.284145 0.226793
0.377489 0.285268 0.228709
0.384494 0.286420 0.230662
0.391295 0.287601 0.232647
0.397899 0.288809 0.234663
0.404317 0.290042 0.236705
0.410554 0.291299 0.238771
0.416621 0.292579 0.240859
0.422524 0.293881 0.242966
0.428271 0.295203 0.245090
0.433868 0.296544 0.247229
0.439322 0.297903 0.249380
0.444640 0.299279 0.251542
0.449826 0.300671 0.253713
0.222988 0.296080 0.222988
0.231457 0.296378 0.223580
0.237503 0.296605 0.224030
0.244447 0.296883 0.224577
0.252122 0.297210 0.225221
0.260312 0.297584 0.225956
0.268837 0.298005 0.226778
0.277554 0.298469 0.227682
0.286352 0.298975 0.228664
0.295146 0.299522 0.229720
0.303871 0.300108 0.230845
0.312481 0.300732 0.232037
0.320943 0.301392 0.233292
0.329233 0.302087 0.234606
0.337337 0.302816 0.235975
0.345246 0.303578 0.237397
0.352956 0.304371 0.238869
0.360465 0.305195 0.240387
0.367774 0.306047 0.241948
0.374888 0.306928 0.243550
0.381810 0.307835 0.245190
0.388545 0.308769 0.246865
0.395100 0.309727 0.248573
0.401480 0.310709 0.250310
0.407691 0.311714 0.252076
0.413740 0.312741 0.253867
0.419632 0.313789 0.255681
0.425375 0.314857 0.257517
0.430974 0.315944 0.259372
0.436434 0.317049 0.261245
0.441762 0.318171 0.263133
0.446962 0.319310 0.265035
0.452040 0.320465 0.266950
0.242302 0.318998 0.242302
0.249412 0.319238 0.242796
0.254542 0.319422 0.243172
0.260488 0.319646 0.243629
0.267123 0.319910 0.244168
0.274272 0.320213 0.244784
0.281786 0.320553 0.245473
0.289541 0.320929 0.246232
0.297437 0.321339 0.247058
0.305393 0.321782 0.247947
0.313347 0.322258 0.248896
0.321251 0.322765 0.249903
0.329067 0.323302 0.250965
0.336770 0.323869 0.252079
0.344340 0.324463 0.253242
0.351763 0.325085 0.254453
0.359030 0.325734 0.255708
0.366137 0.326408 0.257005
0.373079 0.327107 0.258342
0.379858 0.327830 0.259717
0.386474 0.328577 0.261128
0.392930 0.329346 0.262572
0.399227 0.330136 0.264047
0.405372 0.330948 0.265551
0.411366 0.331780 0.267083
0.417215 0.332631 0.268640
0.422924 0.333501 0.270221
0.428496 0.334389 0.271825
0.433938 0.335295 0.273448
0.439252 0.336217 0.275091
0.444444 0.337155 0.276751
0.449517 0.338109 0.278427
0.454478 0.339078 0.280117
0.260282 0.339710 0.260282
0.266318 0.339909 0.260699
0.270711 0.340060 0.261017
0.275839 0.340244 0.261404
0.281607 0.340462 0.261860
0.287874 0.340712 0.262382
0.294514 0.340992 0.262966
0.301424 0.341303 0.263611
0.308513 0.341642 0.264312
0.315709 0.342008 0.265069
0.322953 0.342402 0.265878
0.330198 0.342822 0.266737
0.337406 0.343267 0.267644
0.344548 0.343737 0.268597
0.351602 0.344230 0.269594
0.358551 0.344747 0.270634
0.365384 0.345287 0.271713
0.372092 0.345848 0.272830
0.378668 0.346431 0.273984
0.385111 0.347035 0.275172
0.391418 0.347658 0.276393
0.397589 0.348302 0.277645
0.403625 0.348964 0.278927
0.409527 0.349644 0.280236
0.415298 0.350343 0.281572
0.420941 0.351058 0.282933
0.426458 0.351791 0.284316
0.431854 0.352539 0.285722
0.437130 0.353303 0.287149
0.442291 0.354083 0.288595
0.447340 0.354877 0.290058
0.452281 0.355685 0.291539
0.457117 0.356507 0.293035
0.277023 0.358565 0.277023
0.282202 0.358731 0.277379
0.285997 0.358858 0.277651
0.290454 0.359012 0.277982
0.295500 0.359195 0.278373
0.301020 0.359404 0.278820
0.306910 0.359640 0.279321
0.313082 0.359900 0.279874
0.319458 0.360185 0.280476
0.325973 0.360493 0.281127
0.332572 0.360824 0.281823
0.339210 0.361178 0.282563
0.345851 0.361552 0.283345
0.352465 0.361948 0.284169
0.359029 0.362364 0.285031
0.365524 0.362801 0.285930
0.371937 0.363256 0.286866
0.378256 0.363731 0.287835
0.384473 0.364224 0.288838
0.390584 0.364735 0.289873
0.396584 0.365263 0.290937
0.402470 0.365809 0.292030
0.408243 0.366371 0.293151
0.413902 0.366949 0.294297
0.419447 0.367543 0.295469
0.424879 0.368152 0.296664
0.430201 0.368776 0.297881
0.435415 0.369415 0.299120
0.440522 0.370067 0.300379
0.445525 0.370733 0.301657
0.450426 0.371413 0.302953
0.455229 0.372105 0.304265
0.459936 0.372810 0.305594
0.292637 0.375842 0.292637
0.297125 0.375984 0.292945
0.300431 0.376092 0.293180
0.304333 0.376223 0.293466
0.308776 0.376378 0.293804
0.313663 0.376557 0.294191
0.318911 0.376757 0.294625
0.324442 0.376979 0.295104
0.330190 0.377222 0.295626
0.336097 0.377484 0.296191
0.342114 0.377767 0.296795
0.348200 0.378068 0.297439
0.354318 0.378388 0.298119
0.360441 0.378726 0.298836
0.366545 0.379082 0.299588
0.372610 0.379455 0.300373
0.378622 0.379844 0.301190
0.384567 0.380251 0.302038
0.390436 0.380673 0.302917
0.396223 0.381111 0.303823
0.401922 0.381564 0.304758
0.407528 0.382033 0.305718
0.413040 0.382515 0.306704
0.418455 0.383012 0.307715
0.423774 0.383523 0.308748
0.428996 0.384048 0.309804
0.434121 0.384586 0.310881
0.439150 0.385136 0.311978
0.444085 0.385700 0.313095
0.448927 0.386275 0.314230
0.453678 0.386863 0.315382
0.458340 0.387462 0.316551
0.462914 0.388072 0.317735
0.307235 0.391771 0.307235
0.311159 0.391893 0.307504
0.314062 0.391986 0.307709
0.317503 0.392099 0.307958
0.321439 0.392233 0.308253
0.325789 0.392387 0.308591
0.330484 0.392560 0.308970
0.335459 0.392751 0.309389
0.340656 0.392960 0.309846
0.346024 0.393187 0.310340
0.351519 0.393430 0.310870
0.357104 0.393691 0.311434
0.362745 0.393967 0.312031
0.368414 0.394259 0.312660
0.374089 0.394566 0.313321
0.379751 0.394889 0.314011
0.385382 0.395226 0.314731
0.390971 0.395578 0.315478
0.396507 0.395944 0.316252
0.401981 0.396323 0.317053
0.407387 0.396717 0.317878
0.412720 0.397123 0.318728
0.417976 0.397542 0.319601
0.423152 0.397974 0.320497
0.428247 0.398418 0.321414
0.433259 0.398874 0.322352
0.438188 0.399342 0.323310
0.443033 0.399822 0.324287
0.447795 0.400313 0.325282
0.452475 0.400815 0.326295
0.457074 0.401327 0.327324
0.461592 0.401851 0.328370
0.466032 0.402384 0.329431
0.320920 0.406536 0.320920
0.324378 0.406642 0.321157
0.326947 0.406723 0.321337
0.330002 0.406822 0.321557
0.333508 0.406938 0.321816
0.337402 0.407072 0.322114
0.341621 0.407223 0.322448
0.346112 0.407390 0.322817
0.350825 0.407572 0.323220
0.355716 0.407770 0.323656
0.360744 0.407982 0.324123
0.365876 0.408209 0.324621
0.371082 0.408450 0.325149
0.376335 0.408705 0.325706
0.381613 0.408974 0.326290
0.386898 0.409256 0.326902
0.392173 0.409550 0.327539
0.397425 0.409858 0.328202
0.402643 0.410178 0.328890
0.407819 0.410510 0.329601
0.412943 0.410854 0.330335
0.418012 0.411210 0.331092
0.423019 0.411578 0.331870
0.427961 0.411956 0.332668
0.432836 0.412346 0.333487
0.437641 0.412746 0.334324
0.442375 0.413157 0.335181
0.447038 0.413579 0.336055
0.451628 0.414010 0.336947
0.456146 0.414452 0.337855
0.460592 0.414903 0.338779
0.464967 0.415364 0.339718
0.469271 0.415834 0.340672
0.333785 0.420289 0.333785
0.336856 0.420382 0.333995
0.339144 0.420453 0.334155
0.341872 0.420540 0.334349
0.345014 0.420643 0.334580
0.348515 0.420760 0.334844
0.352324 0.420893 0.335140
0.356394 0.421040 0.335468
0.360682 0.421200 0.335826
0.365149 0.421374 0.336213
0.369760 0.421561 0.336629
0.374485 0.421761 0.337072
0.379296 0.421973 0.337541
0.384168 0.422198 0.338037
0.389080 0.422434 0.338558
0.394015 0.422683 0.339103
0.398957 0.422943 0.339672
0.403893 0.423214 0.340264
0.408811 0.423496 0.340878
0.413701 0.423790 0.341514
0.418557 0.424093 0.342170
0.423371 0.424408 0.342847
0.428137 0.424732 0.343544
0.432853 0.425067 0.344260
0.437514 0.425412 0.344995
0.442117 0.425766 0.345747
0.446661 0.426130 0.346516
0.451143 0.426503 0.347303
0.455563 0.426885 0.348105
0.459921 0.427277 0.348924
0.464215 0.427677 0.349757
0.468446 0.428085 0.350605
0.472614 0.428503 0.351466
0.345912 0.433155 0.345912
0.348656 0.433237 0.346099
0.350707 0.433300 0.346242
0.353158 0.433377 0.346416
0.355988 0.433468 0.346621
0.359151 0.433573 0.346857
0.362604 0.433690 0.347122
0.366306 0.433820 0.347415
0.370220 0.433962 0.347735
0.374312 0.434117 0.348081
0.378551 0.434283 0.348453
0.382909 0.434460 0.348850
0.387361 0.434649 0.349271
0.391885 0.434848 0.349715
0.396462 0.435058 0.350181
0.401073 0.435279 0.350670
0.405705 0.435510 0.351181
0.410344 0.435751 0.351712
0.414979 0.436002 0.352264
0.419601 0.436263 0.352835
0.424200 0.436533 0.353426
0.428771 0.436813 0.354035
0.433307 0.437102 0.354663
0.437804 0.437400 0.355308
0.442257 0.437707 0.355970
0.446664 0.438023 0.356649
0.451022 0.438347 0.357344
0.455328 0.438680 0.358055
0.459581 0.439021 0.358781
0.463781 0.439370 0.359521
0.467925 0.439727 0.360276
0.472014 0.440092 0.361044
0.476048 0.440465 0.361826
0.357374 0.445237 0.357374
0.359841 0.445311 0.357542
0.361689 0.445367 0.357670
0.363902 0.445436 0.357826
0.366464 0.445517 0.358011
0.369335 0.445610 0.358223
0.372478 0.445715 0.358461
0.375857 0.445832 0.358724
0.379441 0.445959 0.359012
0.383199 0.446097 0.359324
0.387105 0.446245 0.359658
0.391133 0.446403 0.360015
0.395261 0.446572 0.360394
0.399468 0.446750 0.360794
0.403736 0.446938 0.361215
0.408050 0.447136 0.361656
0.412394 0.447342 0.362117
0.416756 0.447558 0.362596
0.421126 0.447783 0.363095
0.425494 0.448016 0.363611
0.429850 0.448259 0.364145
0.434190 0.448509 0.364696
0.438506 0.448768 0.365264
0.442792 0.449035 0.365848
0.447046 0.449310 0.366448
0.451263 0.449594 0.367064
0.455440 0.449885 0.367694
0.459575 0.450183 0.368339
0.463665 0.450490 0.368999
0.467709 0.450803 0.369671
0.471706 0.451124 0.370358
0.475656 0.451452 0.371057
0.479556 0.451788 0.371769
0.368233 0.456624 0.368233
0.370464 0.456690 0.368385
0.372138 0.456741 0.368501
0.374146 0.456803 0.368642
0.376476 0.456876 0.368809
0.379093 0.456959 0.369001
0.381964 0.457054 0.369216
0.385059 0.457158 0.369454
0.388351 0.457272 0.369714
0.391813 0.457396 0.369996
0.395420 0.457530 0.370299
0.399151 0.457672 0.370622
0.402985 0.457824 0.370965
0.406903 0.457985 0.371327
0.410889 0.458154 0.371709
0.414928 0.458332 0.372108
0.419005 0.458518 0.372526
0.423110 0.458712 0.372961
0.427232 0.458914 0.373413
0.431360 0.459125 0.373882
0.435488 0.459343 0.374367
0.439608 0.459569 0.374868
0.443714 0.459802 0.375384
0.447800 0.460043 0.375916
0.451862 0.460291 0.376462
0.455896 0.460547 0.377022
0.459899 0.460809 0.377596
0.463867 0.461079 0.378184
0.467799 0.461355 0.378786
0.471692 0.461639 0.379400
0.475545 0.461929 0.380026
0.479357 0.462225 0.380665
0.483126 0.462528 0.381315
0.378547 0.467389 0.378547
0.380574 0.467449 0.378685
0.382097 0.467494 0.378790
0.383928 0.467550 0.378918
0.386055 0.467616 0.379070
0.388449 0.467692 0.379244
0.391082 0.467777 0.379439
0.393927 0.467872 0.379655
0.396960 0.467975 0.379892
0.400157 0.468087 0.380148
0.403496 0.468208 0.380424
0.406959 0.468337 0.380718
0.410527 0.468474 0.381030
0.414181 0.468619 0.381359
0.417909 0.468772 0.381706
0.421694 0.468933 0.382070
0.425525 0.469102 0.382451
0.429391 0.469278 0.382847
0.433281 0.469461 0.383259
0.437186 0.469651 0.383687
0.441098 0.469849 0.384129
0.445010 0.470054 0.384586
0.448917 0.470265 0.385058
0.452812 0.470484 0.385543
0.456690 0.470709 0.386042
0.460549 0.470941 0.386554
0.464383 0.471179 0.387080
0.468191 0.471423 0.387618
0.471969 0.471674 0.388168
0.475715 0.471932 0.388730
0.479428 0.472195 0.389305
0.483106 0.472464 0.389890
0.486747 0.472739 0.390487
0.388364 0.477594 0.388364
0.390214 0.477649 0.388489
0.391606 0.477690 0.388585
0.393282 0.477741 0.388702
0.395232 0.477801 0.388840
0.397430 0.477870 0.388999
0.399853 0.477947 0.389178
0.402475 0.478033 0.389375
0.405277 0.478127 0.389591
0.408237 0.478229 0.389825
0.411337 0.478339 0.390076
0.414557 0.478456 0.390345
0.417883 0.478581 0.390630
0.421298 0.478713 0.390931
0.424788 0.478852 0.391249
0.428341 0.478999 0.391581
0.431944 0.479152 0.391929
0.435587 0.479312 0.392292
0.439261 0.479479 0.392669
0.442957 0.479652 0.393061
0.446666 0.479832 0.393466
0.450383 0.480019 0.393885
0.454100 0.480211 0.394317
0.457813 0.480410 0.394762
0.461517 0.480616 0.395220
0.465208 0.480827 0.395690
0.468881 0.481044 0.396172
0.472534 0.481267 0.396666
0.476163 0.481496 0.397172
0.479767 0.481730 0.397689
0.483344 0.481970 0.398217
0.486891 0.482216 0.398755
0.490407 0.482467 0.399305
0.397727 0.487295 0.397727
0.399422 0.487345 0.397842
0.400700 0.487383 0.397929
0.402239 0.487429 0.398037
0.404034 0.487484 0.398163
0.406059 0.487547 0.398309
0.408295 0.487617 0.398472
0.410720 0.487696 0.398653
0.413316 0.487782 0.398851
0.416064 0.487875 0.399066
0.418946 0.487975 0.399296
0.421948 0.488082 0.399542
0.425054 0.488196 0.399804
0.428250 0.488317 0.400080
0.431523 0.488444 0.400372
0.434861 0.488578 0.400677
0.438254 0.488718 0.400997
0.441691 0.488864 0.401330
0.445164 0.489017 0.401676
0.448663 0.489176 0.402036
0.452182 0.489340 0.402409
0.455714 0.489511 0.402794
0.459253 0.489687 0.403191
0.462794 0.489869 0.403601
0.466332 0.490057 0.404022
0.469862 0.490250 0.404455
0.473380 0.490449 0.404899
0.476884 0.490653 0.405355
0.480371 0.490862 0.405821
0.483838 0.491077 0.406298
0.487283 0.491297 0.406785
0.490703 0.491522 0.407282
0.494098 0.491753 0.407789
0.406674 0.496538 0.406674
0.408234 0.496583 0.406779
0.409410 0.496618 0.406860
0.410830 0.496660 0.406959
0.412486 0.496711 0.407075
0.414359 0.496768 0.407209
0.416428 0.496833 0.407359
0.418677 0.496905 0.407526
0.421088 0.496984 0.407708
0.423645 0.497069 0.407905
0.426332 0.497161 0.408118
0.429135 0.497260 0.408344
0.432041 0.497364 0.408585
0.435037 0.497475 0.408840
0.438111 0.497592 0.409108
0.441252 0.497714 0.409390
0.444450 0.497843 0.409684
0.447696 0.497977 0.409991
0.450981 0.498117 0.410311
0.454297 0.498263 0.410642
0.457638 0.498414 0.410986
0.460997 0.498571 0.411342
0.464367 0.498733 0.411708
0.467745 0.498900 0.412087
0.471124 0.499072 0.412476
0.474501 0.499250 0.412876
0.477872 0.499433 0.413286
0.481234 0.499620 0.413707
0.484583 0.499813 0.414138
0.487918 0.500010 0.414579
0.491235 0.500213 0.415030
0.494533 0.500420 0.415490
0.497809 0.500632 0.415960
0.415239 0.505363 0.415239
0.416679 0.505405 0.415336
0.417767 0.505437 0.415411
0.419080 0.505476 0.415502
0.420613 0.505522 0.415609
0.422349 0.505575 0.415733
0.424271 0.505635 0.415872
0.426362 0.505701 0.416025
0.428607 0.505773 0.416194
0.430991 0.505852 0.416376
0.433501 0.505937 0.416572
0.436124 0.506027 0.416781
0.438848 0.506124 0.417004
0.441661 0.506226 0.417239
0.444552 0.506333 0.417487
0.447511 0.506446 0.417747
0.450529 0.506565 0.418019
0.453598 0.506689 0.418304
0.456708 0.506818 0.418599
0.459854 0.506952 0.418906
0.463027 0.507091 0.419224
0.466222 0.507235 0.419553
0.469434 0.507385 0.419893
0.472657 0.507539 0.420243
0.475886 0.507698 0.420604
0.479118 0.507862 0.420974
0.482348 0.508030 0.421355
0.485574 0.508203 0.421745
0.488791 0.508381 0.422145
0.491998 0.508563 0.422554
0.495193 0.508750 0.422972
0.498372 0.508941 0.423399
0.501534 0.509137 0.423835
0.423452 0.513806 0.423452
0.424786 0.513844 0.423542
0.425794 0.513874 0.423611
0.427012 0.513910 0.423695
0.428437 0.513953 0.423795
0.430051 0.514002 0.423909
0.431840 0.514057 0.424038
0.433788 0.514118 0.424180
0.435883 0.514185 0.424336
0.438112 0.514258 0.424505
0.440462 0.514336 0.424687
0.442921 0.514420 0.424881
0.445478 0.514509 0.425087
0.448123 0.514603 0.425305
0.450846 0.514702 0.425535
0.453638 0.514807 0.425776
0.456490 0.514917 0.426029
0.459393 0.515031 0.426292
0.462341 0.515150 0.426567
0.465327 0.515274 0.426851
0.468344 0.515403 0.427147
0.471386 0.515537 0.427452
0.474447 0.515675 0.427768
0.477524 0.515818 0.428093
0.480611 0.515965 0.428428
0.483705 0.516116 0.428772
0.486801 0.516272 0.429126
0.489896 0.516432 0.429489
0.492988 0.516597 0.429861
0.496073 0.516766 0.430241
0.499149 0.516939 0.430630
0.502214 0.517116 0.431028
0.505266 0.517297 0.431434
0.431340 0.521898 0.431340
0.432579 0.521934 0.431424
0.433517 0.521961 0.431488
0.434650 0.521994 0.431566
0.435977 0.522034 0.431658
0.437481 0.522079 0.431765
0.439150 0.522131 0.431884
0.440971 0.522187 0.432016
0.442931 0.522249 0.432161
0.445018 0.522317 0.432318
0.447222 0.522389 0.432487
0.449531 0.522467 0.432667
0.451936 0.522550 0.432859
0.454428 0.522637 0.433062
0.456996 0.522729 0.433276
0.459633 0.522826 0.433500
0.462331 0.522928 0.433735
0.465082 0.523034 0.433980
0.467878 0.523145 0.434235
0.470715 0.523260 0.434500
0.473585 0.523379 0.434775
0.476482 0.523503 0.435060
0.479403 0.523631 0.435353
0.482342 0.523764 0.435656
0.485294 0.523900 0.435968
0.488257 0.524041 0.436289
0.491225 0.524186 0.436619
0.494196 0.524335 0.436957
0.497167 0.524487 0.437304
0.500135 0.524644 0.437659
0.503098 0.524805 0.438022
0.506053 0.524969 0.438393
0.508998 0.525137 0.438772
0.438927 0.529667 0.438927
0.440081 0.529700 0.439005
0.440955 0.529725 0.439064
0.442013 0.529757 0.439137
0.443251 0.529793 0.439223
0.444657 0.529836 0.439322
0.446218 0.529883 0.439434
0.447923 0.529936 0.439557
0.449760 0.529994 0.439692
0.451719 0.530056 0.439838
0.453789 0.530124 0.439995
0.455962 0.530196 0.440163
0.458228 0.530273 0.440342
0.460578 0.530354 0.440531
0.463004 0.530440 0.440730
0.465498 0.530530 0.440940
0.468053 0.530625 0.441159
0.470661 0.530723 0.441387
0.473317 0.530826 0.441625
0.476014 0.530934 0.441873
0.478746 0.531045 0.442129
0.481509 0.531160 0.442395
0.484297 0.531279 0.442669
0.487105 0.531403 0.442952
0.489931 0.531530 0.443243
0.492768 0.531661 0.443543
0.495615 0.531795 0.443851
0.498468 0.531934 0.444167
0.501324 0.532076 0.444491
0.504180 0.532222 0.444823
0.507033 0.532372 0.445162
0.509883 0.532525 0.445509
0.512725 0.532682 0.445864
0.446233 0.537137 0.446233
0.447312 0.537168 0.446306
0.448129 0.537192 0.446362
0.449118 0.537221 0.446430
0.450277 0.537255 0.446511
0.451593 0.537295 0.446603
0.453057 0.537339 0.446707
0.454656 0.537388 0.446822
0.456381 0.537442 0.446948
0.458223 0.537500 0.447085
0.460172 0.537563 0.447232
0.462220 0.537631 0.447389
0.464358 0.537702 0.447556
0.466578 0.537778 0.447732
0.468872 0.537858 0.447919
0.471234 0.537942 0.448114
0.473657 0.538030 0.448319
0.476133 0.538123 0.448533
0.478658 0.538219 0.448755
0.481224 0.538319 0.448987
0.483828 0.538422 0.449227
0.486463 0.538530 0.449475
0.489126 0.538641 0.449732
0.491812 0.538756 0.449997
0.494516 0.538875 0.450269
0.497236 0.538997 0.450550
0.499967 0.539123 0.450838
0.502707 0.539252 0.451134
0.505453 0.539385 0.451438
0.508202 0.539521 0.451749
0.510951 0.539661 0.452067
0.513699 0.539804 0.452392
0.516443 0.539950 0.452724
0.453280 0.544331 0.453280
0.454290 0.544360 0.453348
0.455055 0.544382 0.453400
0.455982 0.544409 0.453464
0.457069 0.544441 0.453539
0.458305 0.544478 0.453626
0.459679 0.544519 0.453723
0.461183 0.544565 0.453831
0.462807 0.544616 0.453949
0.464541 0.544670 0.454077
0.466379 0.544729 0.454214
0.468312 0.544792 0.454362
0.470332 0.544859 0.454518
0.472432 0.544930 0.454683
0.474605 0.545005 0.454858
0.476845 0.545083 0.455041
0.479144 0.545166 0.455233
0.481498 0.545252 0.455434
0.483899 0.545342 0.455642
0.486344 0.545435 0.455859
0.488827 0.545532 0.456084
0.491343 0.545633 0.456317
0.493888 0.545737 0.456558
0.496458 0.545845 0.456806
0.499048 0.545956 0.457062
0.501656 0.546070 0.457325
0.504278 0.546188 0.457596
0.506910 0.546309 0.457874
0.509551 0.546433 0.458159
0.512198 0.546561 0.458451
0.514847 0.546692 0.458749
0.517497 0.546826 0.459055
0.520146 0.546963 0.459367
0.460083 0.551267 0.460083
0.461031 0.551294 0.460147
0.461749 0.551315 0.460196
0.462620 0.551340 0.460256
0.463642 0.551370 0.460327
0.464804 0.551405 0.460408
0.466098 0.551444 0.460499
0.467514 0.551487 0.460600
0.469045 0.551534 0.460711
0.470682 0.551585 0.460831
0.472417 0.551640 0.460960
0.474245 0.551699 0.461098
0.476156 0.551762 0.461245
0.478146 0.551829 0.461401
0.480206 0.551899 0.461564
0.482332 0.551972 0.461737
0.484517 0.552050 0.461917
0.486756 0.552131 0.462105
0.489044 0.552215 0.462301
0.491374 0.552302 0.462505
0.493744 0.552393 0.462716
0.496148 0.552488 0.462935
0.498582 0.552585 0.463161
0.501042 0.552686 0.463395
