Resources/srgb_to_flog2c_33.cube
# sRGB → pseudo F-Log2C LUT
# size=33
# exposure_stops=0.4
# pre_gamma=0.75
# wb_r=2.6, wb_g=1.2, wb_b=0.35
# sat=0.5
LUT_3D_SIZE 5
DOMAIN_MIN 0.0 0.0 0.0
DOMAIN_MAX 1.0 1.0 1.0
0.092864 0.092864 0.092864
0.233865 0.111006 0.111006
0.328090 0.139232 0.139232
0.393523 0.170116 0.170116
0.442911 0.199969 0.199969
0.277023 0.358565 0.277023
0.319458 0.360185 0.280476
0.371937 0.363256 0.286866
0.419447 0.367543 0.295469
0.459936 0.372810 0.305594
0.378547 0.467389 0.378547
0.396960 0.467975 0.379892
0.425525 0.469102 0.382451
0.456690 0.470709 0.386042
0.486747 0.472739 0.390487
0.446233 0.537137 0.446233
0.456381 0.537442 0.446948
0.473657 0.538030 0.448319
0.494516 0.538875 0.450269
0.516443 0.539950 0.452724
0.460861 0.552059 0.460861
0.469760 0.552324 0.461484
0.485136 0.552836 0.462681
0.504042 0.553572 0.464387
0.524260 0.554509 0.466541
0.225087 0.225087 0.381554
0.287515 0.230655 0.382862
0.353580 0.240680 0.385351
0.408064 0.253677 0.388847
0.452286 0.268344 0.393179
0.315617 0.378260 0.410180
0.346844 0.379608 0.411181
0.389489 0.382174 0.413094
0.431011 0.385774 0.415799
0.467978 0.390230 0.419177
0.395121 0.474906 0.450243
0.411069 0.475452 0.450931
0.436480 0.476503 0.452252
0.464971 0.478003 0.454132
0.493051 0.479900 0.456501
0.455333 0.541109 0.490037
0.464685 0.541402 0.490511
0.480758 0.541969 0.491424
0.500389 0.542783 0.492729
0.521247 0.543820 0.494383
0.468836 0.555520 0.499953
0.477117 0.555777 0.500386
0.491533 0.556272 0.501218
0.509425 0.556984 0.502409
0.528731 0.557893 0.503921
0.317345 0.317345 0.491562
0.348136 0.319723 0.492030
0.390357 0.324183 0.492930
0.431599 0.330315 0.494217
0.468394 0.337711 0.495848
0.364940 0.408403 0.502657
0.385632 0.409421 0.503078
0.416973 0.411365 0.503890
0.450373 0.414114 0.505051
0.482018 0.417545 0.506526
0.421350 0.488114 0.521334
0.434015 0.488597 0.521688
0.454952 0.489526 0.522369
0.479387 0.490855 0.523347
0.504296 0.492538 0.524590
0.471018 0.548406 0.543591
0.479138 0.548681 0.543878
0.493300 0.549210 0.544432
0.510921 0.549971 0.545227
0.529981 0.550941 0.546241
0.482770 0.561922 0.549699
0.490070 0.562163 0.549970
0.502931 0.562630 0.550493
0.519138 0.563301 0.551245
0.536895 0.564157 0.552203
0.339306 0.339306 0.515712
0.364995 0.341245 0.516084
0.401987 0.344903 0.516803
0.439633 0.349977 0.517833
0.474143 0.356161 0.519142
0.379499 0.418302 0.524647
0.397761 0.419230 0.524990
0.426139 0.421005 0.525651
0.457149 0.423519 0.526599
0.487093 0.426664 0.527805
0.430162 0.492913 0.540080
0.441875 0.493375 0.540377
0.461451 0.494263 0.540949
0.484586 0.495535 0.541771
0.508431 0.497146 0.542818
0.476631 0.551158 0.559045
0.484348 0.551425 0.559294
0.497876 0.551941 0.559773
0.514812 0.552683 0.560462
0.533244 0.553628 0.561342
0.487810 0.564349 0.564349
0.494783 0.564585 0.564585
0.507119 0.565041 0.565041
0.522745 0.565697 0.565697
0.539956 0.566534 0.566534
0.339306 0.339306 0.515712
0.364995 0.341245 0.516084
0.401987 0.344903 0.516803
0.439633 0.349977 0.517833
0.474143 0.356161 0.519142
0.379499 0.418302 0.524647
0.397761 0.419230 0.524990
0.426139 0.421005 0.525651
0.457149 0.423519 0.526599
0.487093 0.426664 0.527805
0.430162 0.492913 0.540080
0.441875 0.493375 0.540377
0.461451 0.494263 0.540949
0.484586 0.495535 0.541771
0.508431 0.497146 0.542818
0.476631 0.551158 0.559045
0.484348 0.551425 0.559294
0.497876 0.551941 0.559773
0.514812 0.552683 0.560462
0.533244 0.553628 0.561342
0.487810 0.564349 0.564349
0.494783 0.564585 0.564585
0.507119 0.565041 0.565041
0.522745 0.565697 0.565697
0.539956 0.566534 0.566534
