Resources/srgb_to_flog2c_33.cube
# sRGB → pseudo F-Log2C LUT
# size=33
# exposure_stops=0.4
# pre_gamma=0.75
# wb_r=2.6, wb_g=1.2, wb_b=0.35
# sat=0.5
LUT_3D_SIZE 9
DOMAIN_MIN 0.0 0.0 0.0
DOMAIN_MAX 1.0 1.0 1.0
0.092864 0.092864 0.092864
0.170217 0.100242 0.100242
0.233865 0.111006 0.111006
0.285776 0.124401 0.124401
0.328090 0.139232 0.139232
0.363391 0.154654 0.154654
0.393523 0.170116 0.170116
0.419740 0.185284 0.185284
0.442911 0.199969 0.199969
0.202295 0.270538 0.202295
0.236759 0.271972 0.205001
0.275436 0.274205 0.209150
0.313167 0.277245 0.214684
0.347254 0.280969 0.221293
0.377489 0.285268 0.228709
0.404317 0.290042 0.236705
0.428271 0.295203 0.245090
0.449826 0.300671 0.253713
0.277023 0.358565 0.277023
0.295500 0.359195 0.278373
0.319458 0.360185 0.280476
0.345851 0.361552 0.283345
0.371937 0.363256 0.286866
0.396584 0.365263 0.290937
0.419447 0.367543 0.295469
0.440522 0.370067 0.300379
0.459936 0.372810 0.305594
0.333785 0.420289 0.333785
0.345014 0.420643 0.334580
0.360682 0.421200 0.335826
0.379296 0.421973 0.337541
0.398957 0.422943 0.339672
0.418557 0.424093 0.342170
0.437514 0.425412 0.344995
0.455563 0.426885 0.348105
0.472614 0.428503 0.351466
0.378547 0.467389 0.378547
0.386055 0.467616 0.379070
0.396960 0.467975 0.379892
0.410527 0.468474 0.381030
0.425525 0.469102 0.382451
0.441098 0.469849 0.384129
0.456690 0.470709 0.386042
0.471969 0.471674 0.388168
0.486747 0.472739 0.390487
0.415239 0.505363 0.415239
0.420613 0.505522 0.415609
0.428607 0.505773 0.416194
0.438848 0.506124 0.417004
0.450529 0.506565 0.418019
0.463027 0.507091 0.419224
0.475886 0.507698 0.420604
0.488791 0.508381 0.422145
0.501534 0.509137 0.423835
0.446233 0.537137 0.446233
0.450277 0.537255 0.446511
0.456381 0.537442 0.446948
0.464358 0.537702 0.447556
0.473657 0.538030 0.448319
0.483828 0.538422 0.449227
0.494516 0.538875 0.450269
0.505453 0.539385 0.451438
0.516443 0.539950 0.452724
0.460861 0.552059 0.460861
0.464394 0.552162 0.461103
0.469760 0.552324 0.461484
0.476825 0.552551 0.462014
0.485136 0.552836 0.462681
0.494311 0.553177 0.463475
0.504042 0.553572 0.464387
0.514086 0.554016 0.465412
0.524260 0.554509 0.466541
0.460861 0.552059 0.460861
0.464394 0.552162 0.461103
0.469760 0.552324 0.461484
0.476825 0.552551 0.462014
0.485136 0.552836 0.462681
0.494311 0.553177 0.463475
0.504042 0.553572 0.464387
0.514086 0.554016 0.465412
0.524260 0.554509 0.466541
0.164118 0.164118 0.291109
0.210572 0.167969 0.292293
0.257925 0.173796 0.294141
0.301187 0.181432 0.296668
0.338690 0.190364 0.299781
0.371106 0.200167 0.303395
0.399389 0.210503 0.307436
0.424353 0.221114 0.311835
0.446638 0.231807 0.316530
0.233537 0.288133 0.317314
0.260240 0.289350 0.318241
0.292300 0.291250 0.319692
0.325274 0.293846 0.321686
0.356180 0.297041 0.324154
0.384278 0.300747 0.327039
0.409631 0.304888 0.330288
0.432536 0.309392 0.333852
0.453323 0.314193 0.337686
0.293656 0.366625 0.348918
0.309652 0.367209 0.349607
0.330907 0.368128 0.350691
0.354891 0.369398 0.352184
0.379077 0.370981 0.354043
0.402288 0.372849 0.356230
0.424072 0.374974 0.358709
0.444332 0.377330 0.361449
0.463121 0.379894 0.364419
0.343859 0.424879 0.381545
0.354122 0.425218 0.382053
0.368589 0.425752 0.382853
0.385974 0.426493 0.383959
0.404539 0.427422 0.385342
0.423221 0.428526 0.386976
0.441431 0.429791 0.388839
0.458879 0.431205 0.390910
0.475447 0.432759 0.393171
0.385271 0.470361 0.412209
0.392335 0.470582 0.412590
0.402644 0.470931 0.413191
0.415547 0.471417 0.414024
0.429900 0.472027 0.415069
0.444888 0.472755 0.416307
0.459972 0.473591 0.417725
0.474818 0.474531 0.419308
0.489231 0.475568 0.421043
0.420047 0.507452 0.440140
0.425190 0.507609 0.440433
0.432859 0.507855 0.440896
0.442718 0.508199 0.441539
0.454003 0.508631 0.442347
0.466122 0.509148 0.443307
0.478634 0.509743 0.444409
0.491229 0.510413 0.445643
0.503700 0.511155 0.447001
0.449848 0.538692 0.465376
0.453759 0.538808 0.465608
0.459673 0.538992 0.465973
0.467415 0.539249 0.466482
0.476462 0.539572 0.467121
0.486380 0.539959 0.467883
0.496827 0.540405 0.468758
0.507541 0.540908 0.469742
0.518328 0.541465 0.470826
0.464019 0.553412 0.477731
0.467450 0.553513 0.477938
0.472668 0.553674 0.478263
0.479549 0.553897 0.478717
0.487658 0.554179 0.479287
0.496627 0.554516 0.479966
0.506158 0.554905 0.480749
0.516013 0.555345 0.481628
0.526013 0.555831 0.482598
0.464019 0.553412 0.477731
0.467450 0.553513 0.477938
0.472668 0.553674 0.478263
0.479549 0.553897 0.478717
0.487658 0.554179 0.479287
0.496627 0.554516 0.479966
0.506158 0.554905 0.480749
0.516013 0.555345 0.481628
0.526013 0.555831 0.482598
0.225087 0.225087 0.381554
0.253723 0.227277 0.382062
0.287515 0.230655 0.382862
0.321785 0.235199 0.383968
0.353580 0.240680 0.385351
0.382286 0.246897 0.386985
0.408064 0.253677 0.388847
0.431274 0.260868 0.390919
0.452286 0.268344 0.393179
0.269575 0.311145 0.393562
0.289273 0.312126 0.394016
0.314515 0.313663 0.394731
0.342013 0.315771 0.395721
0.368944 0.318379 0.396960
0.394216 0.321422 0.398426
0.417540 0.324844 0.400101
0.438960 0.328592 0.401966
0.458636 0.332616 0.404006
0.315617 0.378260 0.410180
0.328809 0.378784 0.410568
0.346844 0.379608 0.411181
0.367801 0.380749 0.412030
0.389489 0.382174 0.413094
0.410740 0.383856 0.414355
0.431011 0.385774 0.415799
0.450101 0.387906 0.417411
0.467978 0.390230 0.419177
0.358088 0.431767 0.429747
0.367121 0.432085 0.430070
0.380022 0.432585 0.430580
0.395762 0.433280 0.431289
0.412821 0.434153 0.432177
0.430213 0.435189 0.433233
0.447355 0.436378 0.434443
0.463929 0.437708 0.435798
0.479783 0.439170 0.437287
0.395121 0.474906 0.450243
0.401580 0.475117 0.450509
0.411069 0.475452 0.450931
0.423044 0.475917 0.451516
0.436480 0.476503 0.452252
0.450627 0.477200 0.453127
0.464971 0.478003 0.454132
0.479180 0.478905 0.455259
0.493051 0.479900 0.456501
0.427244 0.510681 0.470529
0.432058 0.510832 0.470749
0.439264 0.511071 0.471098
0.448572 0.511405 0.471583
0.459284 0.511825 0.472192
0.470847 0.512326 0.472918
0.482845 0.512903 0.473754
0.494979 0.513554 0.474692
0.507042 0.514274 0.475728
0.455333 0.541109 0.490037
0.459051 0.541222 0.490220
0.464685 0.541402 0.490511
0.472084 0.541653 0.490915
0.480758 0.541969 0.491424
0.490302 0.542347 0.492030
0.500389 0.542783 0.492729
0.510767 0.543275 0.493515
0.521247 0.543820 0.494383
0.468836 0.555520 0.499953
0.472117 0.555619 0.500121
0.477117 0.555777 0.500386
0.483725 0.555996 0.500754
0.491533 0.556272 0.501218
0.500195 0.556603 0.501771
0.509425 0.556984 0.502409
0.518996 0.557415 0.503127
0.528731 0.557893 0.503921
0.468836 0.555520 0.499953
0.472117 0.555619 0.500121
0.477117 0.555777 0.500386
0.483725 0.555996 0.500754
0.491533 0.556272 0.501218
0.500195 0.556603 0.501771
0.509425 0.556984 0.502409
0.518996 0.557415 0.503127
0.528731 0.557893 0.503921
0.275710 0.275710 0.444094
0.294397 0.277076 0.444376
0.318578 0.279206 0.444823
0.345165 0.282109 0.445443
0.371400 0.285669 0.446221
0.396158 0.289786 0.447147
0.419103 0.294366 0.448210
0.440240 0.299326 0.449401
0.459701 0.304591 0.450712
0.305468 0.336708 0.450936
0.319894 0.337481 0.451201
0.339368 0.338694 0.451619
0.361699 0.340364 0.452201
0.384538 0.342439 0.452932
0.406701 0.344874 0.453801
0.427683 0.347629 0.454800
0.447326 0.350665 0.455920
0.465636 0.353947 0.457154
0.340241 0.392632 0.460945
0.350841 0.393089 0.461187
0.365731 0.393811 0.461568
0.383551 0.394810 0.462098
0.402507 0.396059 0.462764
0.421518 0.397538 0.463557
0.439998 0.399226 0.464469
0.457664 0.401107 0.465492
0.474407 0.403163 0.466621
0.375227 0.440693 0.473511
0.382964 0.440985 0.473725
0.394173 0.441446 0.474064
0.408077 0.442086 0.474536
0.423401 0.442889 0.475129
0.439265 0.443844 0.475835
0.455109 0.444940 0.476648
0.470600 0.446169 0.477562
0.485556 0.447520 0.478570
0.407506 0.480942 0.487532
0.413275 0.481142 0.487721
0.421816 0.481458 0.488018
0.432698 0.481898 0.488431
0.445035 0.482451 0.488952
0.458155 0.483111 0.489573
0.471579 0.483871 0.490288
0.484985 0.484724 0.491092
0.498164 0.485667 0.491980
0.436541 0.515029 0.502218
0.440961 0.515175 0.502382
0.447607 0.515405 0.502641
0.456241 0.515725 0.503002
0.466243 0.516128 0.503456
0.477111 0.516609 0.503998
0.488459 0.517164 0.504623
0.500002 0.517789 0.505326
0.511539 0.518481 0.506103
0.462546 0.544393 0.517038
0.466024 0.544504 0.517180
0.471311 0.544678 0.517406
0.478277 0.544921 0.517720
0.486480 0.545228 0.518116
0.495545 0.545595 0.518588
0.505169 0.546018 0.519133
0.515112 0.546495 0.519747
0.525193 0.547024 0.520426
0.475215 0.558395 0.524813
0.478309 0.558491 0.524946
0.483032 0.558645 0.525155
0.489294 0.558858 0.525447
0.496718 0.559127 0.525815
0.504984 0.559449 0.526255
0.513824 0.559820 0.526762
0.523024 0.560240 0.527334
0.532414 0.560705 0.527966
0.475215 0.558395 0.524813
0.478309 0.558491 0.524946
0.483032 0.558645 0.525155
0.489294 0.558858 0.525447
0.496718 0.559127 0.525815
0.504984 0.559449 0.526255
0.513824 0.559820 0.526762
0.523024 0.560240 0.527334
0.532414 0.560705 0.527966
0.317345 0.317345 0.491562
0.330338 0.318272 0.491743
0.348136 0.319723 0.492030
0.368864 0.321716 0.492428
0.390357 0.324183 0.492930
0.411451 0.327068 0.493528
0.431599 0.330315 0.494217
0.450593 0.333878 0.494992
0.468394 0.337711 0.495848
0.338354 0.362148 0.495994
0.349135 0.362757 0.496168
0.364248 0.363715 0.496443
0.382298 0.365038 0.496825
0.401460 0.366687 0.497306
0.420643 0.368631 0.497880
0.439263 0.370841 0.498542
0.457041 0.373289 0.499286
0.473875 0.375951 0.500109
0.364940 0.408403 0.502657
0.373432 0.408798 0.502820
0.385632 0.409421 0.503078
0.400619 0.410284 0.503437
0.416973 0.411365 0.503890
0.433750 0.412647 0.504429
0.450373 0.414114 0.505051
0.466518 0.415751 0.505752
0.482018 0.417545 0.506526
0.393569 0.451004 0.511311
0.400119 0.451269 0.511462
0.409734 0.451687 0.511700
0.421851 0.452268 0.512031
0.435430 0.452999 0.512448
0.449708 0.453868 0.512946
0.464168 0.454866 0.513521
0.478477 0.455986 0.514168
0.492434 0.457219 0.514884
0.421350 0.488114 0.521334
0.426432 0.488301 0.521471
0.434015 0.488597 0.521688
0.443772 0.489008 0.521989
0.454952 0.489526 0.522369
0.466969 0.490144 0.522823
0.479387 0.490855 0.523347
0.491899 0.491655 0.523937
0.504296 0.492538 0.524590
0.447241 0.520285 0.532223
0.451247 0.520424 0.532346
0.457298 0.520642 0.532542
0.465209 0.520947 0.532815
0.474437 0.521331 0.533158
0.484537 0.521789 0.533568
0.495158 0.522318 0.534042
0.506032 0.522914 0.534576
0.516965 0.523574 0.535167
0.471018 0.548406 0.543591
0.474235 0.548513 0.543702
0.479138 0.548681 0.543878
0.485626 0.548915 0.544123
0.493300 0.549210 0.544432
0.501825 0.549563 0.544801
0.510921 0.549971 0.545227
0.520364 0.550431 0.545708
0.529981 0.550941 0.546241
0.482770 0.561922 0.549699
0.485655 0.562015 0.549804
0.490070 0.562163 0.549970
0.495942 0.562370 0.550201
0.502931 0.562630 0.550493
0.510745 0.562941 0.550842
0.519138 0.563301 0.551245
0.527908 0.563707 0.551699
0.536895 0.564157 0.552203
0.482770 0.561922 0.549699
0.485655 0.562015 0.549804
0.490070 0.562163 0.549970
0.495942 0.562370 0.550201
0.502931 0.562630 0.550493
0.510745 0.562941 0.550842
0.519138 0.563301 0.551245
0.527908 0.563707 0.551699
0.536895 0.564157 0.552203
0.339306 0.339306 0.515712
0.349995 0.340060 0.515856
0.364995 0.341245 0.516084
0.382929 0.342876 0.516402
0.401987 0.344903 0.516803
0.421083 0.347283 0.517281
0.439633 0.349977 0.517833
0.457355 0.352947 0.518454
0.474143 0.356161 0.519142
0.356703 0.377067 0.519259
0.365848 0.377597 0.519399
0.378896 0.378431 0.519620
0.394791 0.379584 0.519928
0.411994 0.381025 0.520315
0.429511 0.382726 0.520778
0.446757 0.384664 0.521312
0.463418 0.386817 0.521913
0.479343 0.389165 0.522579
0.379499 0.418302 0.524647
0.386943 0.418662 0.524780
0.397761 0.419230 0.524990
0.411232 0.420018 0.525282
0.426139 0.421005 0.525651
0.441628 0.422177 0.526091
0.457149 0.423519 0.526599
0.472366 0.425019 0.527172
0.487093 0.426664 0.527805
0.404871 0.457741 0.531740
0.410780 0.457990 0.531864
0.419516 0.458382 0.532060
0.430623 0.458928 0.532334
0.443189 0.459615 0.532679
0.456525 0.460431 0.533091
0.470143 0.461370 0.533567
0.483720 0.462424 0.534103
0.497047 0.463585 0.534697
0.430162 0.492913 0.540080
0.434849 0.493092 0.540195
0.441875 0.493375 0.540377
0.450966 0.493768 0.540630
0.461451 0.494263 0.540949
0.472794 0.494854 0.541331
0.484586 0.495535 0.541771
0.496534 0.496300 0.542267
0.508431 0.497146 0.542818
0.454212 0.523854 0.549285
0.457969 0.523988 0.549391
0.463660 0.524199 0.549558
0.471127 0.524494 0.549790
0.479876 0.524865 0.550083
0.489496 0.525309 0.550433
0.499656 0.525821 0.550837
0.510102 0.526397 0.551294
0.520645 0.527036 0.551799
0.476631 0.551158 0.559045
0.479685 0.551261 0.559142
0.484348 0.551425 0.559294
0.490535 0.551653 0.559506
0.497876 0.551941 0.559773
0.506056 0.552285 0.560093
0.514812 0.552683 0.560462
0.523930 0.553131 0.560879
0.533244 0.553628 0.561342
0.487810 0.564349 0.564349
0.490563 0.564440 0.564440
0.494783 0.564585 0.564585
0.500408 0.564787 0.564787
0.507119 0.565041 0.565041
0.514642 0.565346 0.565346
0.522745 0.565697 0.565697
0.531234 0.566094 0.566094
0.539956 0.566534 0.566534
0.487810 0.564349 0.564349
0.490563 0.564440 0.564440
0.494783 0.564585 0.564585
0.500408 0.564787 0.564787
0.507119 0.565041 0.565041
0.514642 0.565346 0.565346
0.522745 0.565697 0.565697
0.531234 0.566094 0.566094
0.539956 0.566534 0.566534
0.339306 0.339306 0.515712
0.349995 0.340060 0.515856
0.364995 0.341245 0.516084
0.382929 0.342876 0.516402
0.401987 0.344903 0.516803
0.421083 0.347283 0.517281
0.439633 0.349977 0.517833
0.457355 0.352947 0.518454
0.474143 0.356161 0.519142
0.356703 0.377067 0.519259
0.365848 0.377597 0.519399
0.378896 0.378431 0.519620
0.394791 0.379584 0.519928
0.411994 0.381025 0.520315
0.429511 0.382726 0.520778
0.446757 0.384664 0.521312
0.463418 0.386817 0.521913
0.479343 0.389165 0.522579
0.379499 0.418302 0.524647
0.386943 0.418662 0.524780
0.397761 0.419230 0.524990
0.411232 0.420018 0.525282
0.426139 0.421005 0.525651
0.441628 0.422177 0.526091
0.457149 0.423519 0.526599
0.472366 0.425019 0.527172
0.487093 0.426664 0.527805
0.404871 0.457741 0.531740
0.410780 0.457990 0.531864
0.419516 0.458382 0.532060
0.430623 0.458928 0.532334
0.443189 0.459615 0.532679
0.456525 0.460431 0.533091
0.470143 0.461370 0.533567
0.483720 0.462424 0.534103
0.497047 0.463585 0.534697
0.430162 0.492913 0.540080
0.434849 0.493092 0.540195
0.441875 0.493375 0.540377
0.450966 0.493768 0.540630
0.461451 0.494263 0.540949
0.472794 0.494854 0.541331
0.484586 0.495535 0.541771
0.496534 0.496300 0.542267
0.508431 0.497146 0.542818
0.454212 0.523854 0.549285
0.457969 0.523988 0.549391
0.463660 0.524199 0.549558
0.471127 0.524494 0.549790
0.479876 0.524865 0.550083
0.489496 0.525309 0.550433
0.499656 0.525821 0.550837
0.510102 0.526397 0.551294
0.520645 0.527036 0.551799
0.476631 0.551158 0.559045
0.479685 0.551261 0.559142
0.484348 0.551425 0.559294
0.490535 0.551653 0.559506
0.497876 0.551941 0.559773
0.506056 0.552285 0.560093
0.514812 0.552683 0.560462
0.523930 0.553131 0.560879
0.533244 0.553628 0.561342
0.487810 0.564349 0.564349
0.490563 0.564440 0.564440
0.494783 0.564585 0.564585
0.500408 0.564787 0.564787
0.507119 0.565041 0.565041
0.514642 0.565346 0.565346
0.522745 0.565697 0.565697
0.531234 0.566094 0.566094
0.539956 0.566534 0.566534
0.487810 0.564349 0.564349
0.490563 0.564440 0.564440
0.494783 0.564585 0.564585
0.500408 0.564787 0.564787
0.507119 0.565041 0.565041
0.514642 0.565346 0.565346
0.522745 0.565697 0.565697
0.531234 0.566094 0.566094
0.539956 0.566534 0.566534
0.339306 0.339306 0.515712
0.349995 0.340060 0.515856
0.364995 0.341245 0.516084
0.382929 0.342876 0.516402
0.401987 0.344903 0.516803
0.421083 0.347283 0.517281
0.439633 0.349977 0.517833
0.457355 0.352947 0.518454
0.474143 0.356161 0.519142
0.356703 0.377067 0.519259
0.365848 0.377597 0.519399
0.378896 0.378431 0.519620
0.394791 0.379584 0.519928
0.411994 0.381025 0.520315
0.429511 0.382726 0.520778
0.446757 0.384664 0.521312
0.463418 0.386817 0.521913
0.479343 0.389165 0.522579
0.379499 0.418302 0.524647
0.386943 0.418662 0.524780
0.397761 0.419230 0.524990
0.411232 0.420018 0.525282
0.426139 0.421005 0.525651
0.441628 0.422177 0.526091
0.457149 0.423519 0.526599
0.472366 0.425019 0.527172
0.487093 0.426664 0.527805
0.404871 0.457741 0.531740
0.410780 0.457990 0.531864
0.419516 0.458382 0.532060
0.430623 0.458928 0.532334
0.443189 0.459615 0.532679
0.456525 0.460431 0.533091
0.470143 0.461370 0.533567
0.483720 0.462424 0.534103
0.497047 0.463585 0.534697
0.430162 0.492913 0.540080
0.434849 0.493092 0.540195
0.441875 0.493375 0.540377
0.450966 0.493768 0.540630
0.461451 0.494263 0.540949
0.472794 0.494854 0.541331
0.484586 0.495535 0.541771
0.496534 0.496300 0.542267
0.508431 0.497146 0.542818
0.454212 0.523854 0.549285
0.457969 0.523988 0.549391
0.463660 0.524199 0.549558
0.471127 0.524494 0.549790
0.479876 0.524865 0.550083
0.489496 0.525309 0.550433
0.499656 0.525821 0.550837
0.510102 0.526397 0.551294
0.520645 0.527036 0.551799
0.476631 0.551158 0.559045
0.479685 0.551261 0.559142
0.484348 0.551425 0.559294
0.490535 0.551653 0.559506
0.497876 0.551941 0.559773
0.506056 0.552285 0.560093
0.514812 0.552683 0.560462
0.523930 0.553131 0.560879
0.533244 0.553628 0.561342
0.487810 0.564349 0.564349
0.490563 0.564440 0.564440
0.494783 0.564585 0.564585
0.500408 0.564787 0.564787
0.507119 0.565041 0.565041
0.514642 0.565346 0.565346
0.522745 0.565697 0.565697
0.531234 0.566094 0.566094
0.539956 0.566534 0.566534
0.487810 0.564349 0.564349
0.490563 0.564440 0.564440
0.494783 0.564585 0.564585
0.500408 0.564787 0.564787
0.507119 0.565041 0.565041
0.514642 0.565346 0.565346
0.522745 0.565697 0.565697
0.531234 0.566094 0.566094
0.539956 0.566534 0.566534
0.339306 0.339306 0.515712
0.349995 0.340060 0.515856
0.364995 0.341245 0.516084
0.382929 0.342876 0.516402
0.401987 0.344903 0.516803
0.421083 0.347283 0.517281
0.439633 0.349977 0.517833
0.457355 0.352947 0.518454
0.474143 0.356161 0.519142
0.356703 0.377067 0.519259
0.365848 0.377597 0.519399
0.378896 0.378431 0.519620
0.394791 0.379584 0.519928
0.411994 0.381025 0.520315
0.429511 0.382726 0.520778
0.446757 0.384664 0.521312
0.463418 0.386817 0.521913
0.479343 0.389165 0.522579
0.379499 0.418302 0.524647
0.386943 0.418662 0.524780
0.397761 0.419230 0.524990
0.411232 0.420018 0.525282
0.426139 0.421005 0.525651
0.441628 0.422177 0.526091
0.457149 0.423519 0.526599
0.472366 0.425019 0.527172
0.487093 0.426664 0.527805
0.404871 0.457741 0.531740
0.410780 0.457990 0.531864
0.419516 0.458382 0.532060
0.430623 0.458928 0.532334
0.443189 0.459615 0.532679
0.456525 0.460431 0.533091
0.470143 0.461370 0.533567
0.483720 0.462424 0.534103
0.497047 0.463585 0.534697
0.430162 0.492913 0.540080
0.434849 0.493092 0.540195
0.441875 0.493375 0.540377
0.450966 0.493768 0.540630
0.461451 0.494263 0.540949
0.472794 0.494854 0.541331
0.484586 0.495535 0.541771
0.496534 0.496300 0.542267
0.508431 0.497146 0.542818
0.454212 0.523854 0.549285
0.457969 0.523988 0.549391
0.463660 0.524199 0.549558
0.471127 0.524494 0.549790
0.479876 0.524865 0.550083
0.489496 0.525309 0.550433
0.499656 0.525821 0.550837
0.510102 0.526397 0.551294
0.520645 0.527036 0.551799
0.476631 0.551158 0.559045
0.479685 0.551261 0.559142
0.484348 0.551425 0.559294
0.490535 0.551653 0.559506
0.497876 0.551941 0.559773
0.506056 0.552285 0.560093
0.514812 0.552683 0.560462
0.523930 0.553131 0.560879
0.533244 0.553628 0.561342
0.487810 0.564349 0.564349
0.490563 0.564440 0.564440
0.494783 0.564585 0.564585
0.500408 0.564787 0.564787
0.507119 0.565041 0.565041
0.514642 0.565346 0.565346
0.522745 0.565697 0.565697
0.531234 0.566094 0.566094
0.539956 0.566534 0.566534
0.487810 0.564349 0.564349
0.490563 0.564440 0.564440
0.494783 0.564585 0.564585
0.500408 0.564787 0.564787
0.507119 0.565041 0.565041
0.514642 0.565346 0.565346
0.522745 0.565697 0.565697
0.531234 0.566094 0.566094
0.539956 0.566534 0.566534
